X: 6
T: No_103_Song_at_About_Midnight_(a).krn
N: Derived from No_103_Song_at_About_Midnight_(a).krn
%%abc-version 2.0
%%abcx-abcm2ps-target-version 5.9.1 (29 Sep 2008)
%%abc-creator hum2abc beta
%%abcx-conversion-date 2019/03/15 08:39:19
%%humdrum-veritas 1403053862
%%humdrum-veritas-data 3873225541
%%linebreak <none>
%%barnumbers 0
L: 1/16
M: 2/4
%%staves {1 2}
V: 1 clef=bass
V: 2 clef=bass
K: D
[V:1] [K:clef=bass][M:2/4]A,2A,2- A,2 z2 | 
[V:2] [K:clef=bass][M:2/4]G,,G,, z2 G,,G,, z2 | 
[V:1] E3E E3B, | 
[V:2] G,,G,, z2 G,,G,, z2 | 
[V:1] D3E B,A, z2 ]|:  
[V:2] G,,G,, z2 G,,G,, z2 ]|:  
[V:1] E3D DA,3 | 
[V:2] G,,G,, z2 G,,G,, z2 | 
[V:1] B,3D A,2 z2 | 
[V:2] G,,G,, z2 G,,G,, z2 | 
[V:1] D3A, A,F,2 z | 
[V:2] G,,G,, z2 G,,G,, z2 | 
[V:1] A,3B, F,2 z2 | 
[V:2] G,,G,, z2 G,,G,, z2 | 
[V:1] B,3A, A,F,3 | 
[V:2] G,,G,, z2 G,,G,, z2 | 
[V:1] !fermata!F,2A,2- A,2F,F, | 
[V:2] G,,G,, z2 G,,G,, z2 | 
[V:1] A,3A, A,2 z2 | 
[V:2] G,,G,, z2 G,,G,, z2 | 
[V:1] z4B,B,2B, | 
[V:2] z4G,,G,, z2 | 
[V:1] E3D DA,2 z | 
[V:2] G,,G,, z2 G,,G,, z2 | 
[V:1] _B,3D A,2 z2 | 
[V:2] G,,G,, z2 G,,G,, z2 | 
[V:1] D3A, A,F,2 z | 
[V:2] G,,G,, z2 G,,G,, z2 | 
[V:1] A,3B, F,2 z2 | 
[V:2] G,,G,, z2 G,,G,, z2 | 
[V:1] B,3A, A,F,3 | 
[V:2] G,,G,, z2 G,,G,, z2 | 
[V:1] !fermata!F,2A,2- A,2F,F, | 
[V:2] G,,G,, z2 G,,G,, z2 | 
[V:1] A,3A, A,2 z2 | 
[V:2] G,,G,, z2 G,,G,, z2 | 
[V:1] z4B,3B, :|]  
[V:2] z4G,,G,, z2 :|]  
[V:1] z8 | 
[V:2] z8 | 
[V:1] A,2A,2- A,2 z2 | 
[V:2] G,,G,, z2 G,,G,, z2 | 
[V:1] E3E E3B, | 
[V:2] G,,G,, z2 G,,G,, z2 | 
[V:1] D3E B,2 z2 | 
[V:2] G,,G,, z2 G,,G,, z2 | 
[V:1] E3D DA,2 z | 
[V:2] G,,G,, z2 G,,G,, z2 | 
[V:1] _B,3D A,2 z2 | 
[V:2] G,,G,, z2z4 | 
[V:1] D3A, A,F,2 z | 
[V:2] G,,G,, z2 G,,G,, z2 | 
[V:1] A,3B, F,2 z2 | 
[V:2] G,,G,, z2 G,,G,, z2 | 
[V:1] B,3A, A,F,3 | 
[V:2] G,,G,, z2 G,,G,, z2 | 
[V:1] F,2A,2- A,2F,F, | 
[V:2] G,,G,, z2 G,,G,, z2 | 
[V:1] A,3A, A,2 z2 |]  
[V:2] G,,G,, z2 G,,G,, z2 |]  



